images/blob.svg

<svg xmlns="http://www.w3.org/2000/svg" viewBox="193 253 400 530" version="1.2">
    <defs>
        <filter x="0%" y="0%" width="100%" filterUnits="objectBoundingBox" id="bfa5f04751" height="100%">
            <feColorMatrix values="0 0 0 0 1 0 0 0 0 1 0 0 0 0 1 0 0 0 1 0" type="matrix" in="SourceGraphic"/>
        </filter>
        <clipPath id="55d81c717a">
            <path d="M 0.78125 0.78125 L 375.226562 0.78125 L 375.226562 375.257812 L 0.78125 375.257812 Z M 0.78125 0.78125 "/>
        </clipPath>
        <clipPath id="7d886fe63b">
            <rect x="0" width="376" y="0" height="376"/>
        </clipPath>
        <clipPath id="0ace9807d1">
            <path d="M 193 298 L 553 298 L 553 784 L 193 784 Z M 193 298 "/>
        </clipPath>
        <clipPath id="762e98f4dd">
            <path d="M 302.007812 809.910156 L 158.617188 346.582031 L 494.476562 242.636719 L 637.867188 705.964844 Z M 302.007812 809.910156 "/>
        </clipPath>
        <clipPath id="a300f42cc3">
            <path d="M 302.007812 809.910156 L 158.617188 346.582031 L 494.476562 242.636719 L 637.867188 705.964844 Z M 302.007812 809.910156 "/>
        </clipPath>
        <clipPath id="874f393844">
            <path d="M 84 56 L 418 56 L 418 556 L 84 556 Z M 84 56 "/>
        </clipPath>
        <clipPath id="ad964e685d">
            <path d="M 1.371094 189.152344 L 313.089844 2.023438 L 569.28125 428.785156 L 257.5625 615.914062 Z M 1.371094 189.152344 "/>
        </clipPath>
        <clipPath id="6d587202de">
            <path d="M 257.511719 615.824219 L 569.226562 428.695312 L 313.035156 1.933594 L 1.320312 189.0625 Z M 257.511719 615.824219 "/>
        </clipPath>
        <clipPath id="bb1e044493">
            <path d="M 258.125 615.453125 L 568.234375 429.292969 L 312.03125 2.515625 L 1.925781 188.679688 Z M 258.125 615.453125 "/>
        </clipPath>
        <clipPath id="9b59318607">
            <rect x="0" width="571" y="0" height="620"/>
        </clipPath>
    </defs>
    <g id="e4a7046dbd">
        <g mask="url(#74844d6166)" transform="matrix(1,0,0,1,217,318)">
            <g clip-path="url(#7d886fe63b)">
                <g clip-rule="nonzero" clip-path="url(#55d81c717a)">
                    <path style=" stroke:none;fill-rule:nonzero;fill:#ffffff;fill-opacity:1;"
                          d="M 188 0.78125 C 184.9375 0.78125 181.875 0.855469 178.8125 1.003906 C 175.753906 1.15625 172.699219 1.382812 169.648438 1.679688 C 166.601562 1.980469 163.558594 2.355469 160.527344 2.804688 C 157.5 3.257812 154.480469 3.78125 151.476562 4.378906 C 148.46875 4.976562 145.480469 5.644531 142.507812 6.390625 C 139.535156 7.136719 136.585938 7.953125 133.652344 8.839844 C 130.722656 9.730469 127.8125 10.691406 124.925781 11.722656 C 122.042969 12.757812 119.183594 13.859375 116.355469 15.03125 C 113.523438 16.203125 110.722656 17.445312 107.953125 18.753906 C 105.183594 20.066406 102.449219 21.441406 99.746094 22.886719 C 97.042969 24.332031 94.378906 25.839844 91.75 27.417969 C 89.121094 28.992188 86.535156 30.628906 83.984375 32.332031 C 81.4375 34.035156 78.933594 35.796875 76.472656 37.625 C 74.011719 39.449219 71.597656 41.332031 69.230469 43.277344 C 66.859375 45.222656 64.539062 47.222656 62.269531 49.277344 C 60 51.335938 57.78125 53.449219 55.617188 55.617188 C 53.449219 57.78125 51.335938 60 49.277344 62.269531 C 47.222656 64.542969 45.222656 66.859375 43.277344 69.230469 C 41.332031 71.597656 39.449219 74.011719 37.625 76.472656 C 35.796875 78.933594 34.035156 81.4375 32.332031 83.984375 C 30.628906 86.535156 28.992188 89.121094 27.414062 91.75 C 25.839844 94.378906 24.332031 97.042969 22.886719 99.746094 C 21.441406 102.449219 20.066406 105.183594 18.753906 107.953125 C 17.445312 110.722656 16.203125 113.523438 15.03125 116.355469 C 13.859375 119.183594 12.757812 122.042969 11.722656 124.925781 C 10.691406 127.8125 9.730469 130.722656 8.839844 133.652344 C 7.953125 136.585938 7.136719 139.539062 6.390625 142.507812 C 5.644531 145.480469 4.976562 148.46875 4.378906 151.476562 C 3.78125 154.480469 3.257812 157.5 2.804688 160.527344 C 2.355469 163.558594 1.980469 166.601562 1.679688 169.648438 C 1.382812 172.699219 1.15625 175.753906 1.003906 178.8125 C 0.855469 181.875 0.78125 184.9375 0.78125 188 C 0.78125 191.0625 0.855469 194.125 1.003906 197.1875 C 1.15625 200.246094 1.382812 203.300781 1.679688 206.351562 C 1.980469 209.398438 2.355469 212.441406 2.804688 215.472656 C 3.257812 218.5 3.78125 221.519531 4.378906 224.523438 C 4.976562 227.53125 5.644531 230.519531 6.390625 233.492188 C 7.136719 236.464844 7.953125 239.414062 8.839844 242.347656 C 9.730469 245.277344 10.691406 248.1875 11.722656 251.074219 C 12.757812 253.957031 13.859375 256.816406 15.03125 259.644531 C 16.203125 262.476562 17.445312 265.277344 18.753906 268.046875 C 20.066406 270.816406 21.441406 273.554688 22.886719 276.253906 C 24.332031 278.957031 25.839844 281.621094 27.414062 284.25 C 28.992188 286.878906 30.628906 289.464844 32.332031 292.015625 C 34.035156 294.5625 35.796875 297.066406 37.625 299.527344 C 39.449219 301.988281 41.332031 304.402344 43.277344 306.769531 C 45.222656 309.140625 47.222656 311.460938 49.277344 313.730469 C 51.335938 316 53.449219 318.21875 55.617188 320.382812 C 57.78125 322.550781 60 324.664062 62.269531 326.722656 C 64.539062 328.777344 66.859375 330.78125 69.230469 332.722656 C 71.597656 334.667969 74.011719 336.550781 76.472656 338.375 C 78.933594 340.203125 81.4375 341.964844 83.984375 343.667969 C 86.535156 345.371094 89.121094 347.007812 91.75 348.585938 C 94.378906 350.160156 97.042969 351.667969 99.746094 353.113281 C 102.449219 354.558594 105.183594 355.933594 107.953125 357.246094 C 110.722656 358.554688 113.523438 359.796875 116.355469 360.96875 C 119.183594 362.140625 122.042969 363.242188 124.925781 364.277344 C 127.8125 365.308594 130.722656 366.269531 133.652344 367.160156 C 136.585938 368.046875 139.535156 368.863281 142.507812 369.609375 C 145.480469 370.355469 148.46875 371.023438 151.476562 371.621094 C 154.480469 372.21875 157.5 372.746094 160.527344 373.195312 C 163.558594 373.644531 166.601562 374.019531 169.648438 374.320312 C 172.699219 374.617188 175.753906 374.84375 178.8125 374.996094 C 181.875 375.144531 184.9375 375.21875 188 375.21875 C 191.0625 375.21875 194.125 375.144531 197.1875 374.996094 C 200.246094 374.84375 203.300781 374.617188 206.351562 374.320312 C 209.398438 374.019531 212.441406 373.644531 215.472656 373.195312 C 218.5 372.746094 221.519531 372.21875 224.523438 371.621094 C 227.53125 371.023438 230.519531 370.355469 233.492188 369.609375 C 236.464844 368.863281 239.414062 368.046875 242.347656 367.160156 C 245.277344 366.269531 248.1875 365.308594 251.074219 364.277344 C 253.957031 363.242188 256.816406 362.140625 259.644531 360.96875 C 262.476562 359.796875 265.277344 358.554688 268.046875 357.246094 C 270.816406 355.933594 273.550781 354.558594 276.253906 353.113281 C 278.957031 351.667969 281.621094 350.160156 284.25 348.585938 C 286.878906 347.007812 289.464844 345.371094 292.015625 343.667969 C 294.5625 341.964844 297.066406 340.203125 299.527344 338.375 C 301.988281 336.550781 304.402344 334.667969 306.769531 332.722656 C 309.140625 330.78125 311.457031 328.777344 313.730469 326.722656 C 316 324.664062 318.21875 322.550781 320.382812 320.382812 C 322.550781 318.21875 324.664062 316 326.722656 313.730469 C 328.777344 311.460938 330.777344 309.140625 332.722656 306.769531 C 334.667969 304.402344 336.550781 301.988281 338.375 299.527344 C 340.203125 297.066406 341.964844 294.5625 343.667969 292.015625 C 345.371094 289.464844 347.007812 286.878906 348.582031 284.25 C 350.160156 281.621094 351.667969 278.957031 353.113281 276.253906 C 354.558594 273.554688 355.933594 270.816406 357.246094 268.046875 C 358.554688 265.277344 359.796875 262.476562 360.96875 259.644531 C 362.140625 256.816406 363.242188 253.957031 364.277344 251.074219 C 365.308594 248.1875 366.269531 245.277344 367.160156 242.347656 C 368.046875 239.414062 368.863281 236.464844 369.609375 233.492188 C 370.355469 230.519531 371.023438 227.53125 371.621094 224.523438 C 372.21875 221.519531 372.742188 218.5 373.195312 215.472656 C 373.644531 212.441406 374.019531 209.398438 374.320312 206.351562 C 374.617188 203.300781 374.84375 200.246094 374.996094 197.1875 C 375.144531 194.125 375.21875 191.0625 375.21875 188 C 375.214844 184.9375 375.136719 181.875 374.984375 178.816406 C 374.828125 175.757812 374.601562 172.703125 374.296875 169.65625 C 373.996094 166.609375 373.617188 163.570312 373.164062 160.539062 C 372.710938 157.511719 372.183594 154.496094 371.585938 151.492188 C 370.984375 148.488281 370.3125 145.5 369.5625 142.53125 C 368.816406 139.558594 368 136.609375 367.105469 133.679688 C 366.214844 130.746094 365.253906 127.839844 364.21875 124.957031 C 363.1875 122.074219 362.082031 119.21875 360.90625 116.390625 C 359.734375 113.558594 358.492188 110.761719 357.179688 107.992188 C 355.871094 105.226562 354.492188 102.492188 353.046875 99.789062 C 351.601562 97.089844 350.089844 94.425781 348.515625 91.800781 C 346.9375 89.171875 345.300781 86.585938 343.597656 84.039062 C 341.894531 81.492188 340.132812 78.992188 338.304688 76.53125 C 336.480469 74.070312 334.597656 71.65625 332.652344 69.289062 C 330.710938 66.921875 328.710938 64.605469 326.652344 62.335938 C 324.59375 60.066406 322.484375 57.847656 320.316406 55.683594 C 318.152344 53.515625 315.933594 51.40625 313.664062 49.347656 C 311.394531 47.289062 309.078125 45.289062 306.710938 43.347656 C 304.34375 41.402344 301.929688 39.519531 299.46875 37.695312 C 297.007812 35.867188 294.507812 34.105469 291.960938 32.402344 C 289.414062 30.699219 286.828125 29.0625 284.199219 27.484375 C 281.574219 25.910156 278.910156 24.398438 276.210938 22.953125 C 273.507812 21.507812 270.773438 20.128906 268.007812 18.820312 C 265.238281 17.507812 262.441406 16.265625 259.609375 15.09375 C 256.78125 13.917969 253.925781 12.816406 251.042969 11.78125 C 248.160156 10.746094 245.253906 9.785156 242.320312 8.894531 C 239.390625 8 236.441406 7.183594 233.46875 6.4375 C 230.5 5.6875 227.511719 5.015625 224.507812 4.414062 C 221.503906 3.816406 218.488281 3.289062 215.460938 2.835938 C 212.429688 2.382812 209.390625 2.003906 206.34375 1.703125 C 203.296875 1.398438 200.242188 1.171875 197.183594 1.015625 C 194.125 0.863281 191.0625 0.785156 188 0.78125 Z M 165.285156 281.609375 L 138.199219 257.519531 L 199.980469 188 L 138.199219 118.480469 L 165.285156 94.390625 L 248.535156 188 Z M 165.285156 281.609375 "/>
                </g>
            </g>
            <mask id="74844d6166">
                <g filter="url(#bfa5f04751)">
                    <rect x="0" width="810" y="0" height="1012.49997"
                          style="fill:#000000;fill-opacity:0.82;stroke:none;"/>
                </g>
            </mask>
        </g>
        <g clip-rule="nonzero" clip-path="url(#0ace9807d1)">
            <g clip-rule="nonzero" clip-path="url(#762e98f4dd)">
                <g clip-rule="nonzero" clip-path="url(#a300f42cc3)">
                    <path style=" stroke:none;fill-rule:evenodd;fill:#ff791a;fill-opacity:1;"
                          d="M 199.816406 477.441406 C 191.914062 452.648438 192.6875 429.09375 195.375 405.421875 C 197.773438 384.308594 205.097656 365.023438 216.714844 347.296875 C 229.179688 328.273438 246.835938 319.660156 269.296875 322.308594 C 279.832031 323.546875 290.242188 326.320312 300.523438 329.09375 C 310.773438 331.875 321.066406 333.75 331.207031 330.097656 C 341.453125 326.402344 351.328125 321.636719 361.28125 317.148438 C 370.519531 312.988281 379.355469 307.730469 388.882812 304.460938 C 418.597656 294.261719 447.796875 296.675781 476.3125 309.648438 C 507.550781 323.839844 527.007812 347.917969 535.535156 380.8125 C 537.1875 387.1875 537.453125 394.363281 536.488281 400.90625 C 534.890625 411.679688 532.574219 422.484375 529.128906 432.804688 C 522.324219 453.207031 519.6875 473.820312 523.292969 495.046875 C 525.082031 505.597656 528.183594 515.746094 533.609375 525.128906 C 543.996094 543.113281 551.777344 562.082031 552.707031 583.101562 C 553.5 601.0625 550.195312 618.316406 541.960938 634.523438 C 535.96875 646.320312 526.25 652.085938 513.414062 653.355469 C 498.152344 654.871094 482.886719 656.378906 467.636719 657.972656 C 457.074219 659.09375 447.511719 663.179688 438.429688 668.421875 C 432.929688 671.605469 429.320312 676.386719 428.917969 682.828125 C 428.542969 689.03125 428.429688 695.308594 428.863281 701.507812 C 429.695312 713.480469 430.589844 725.417969 427.636719 737.226562 C 423.511719 753.726562 415.589844 767.546875 400.515625 776.636719 C 390.582031 782.632812 379.808594 784.410156 368.941406 781.9375 C 336.261719 774.507812 310.238281 757.238281 292.886719 727.984375 C 286.660156 717.488281 285.132812 705.945312 285.921875 694.082031 C 286.589844 683.964844 287.699219 673.855469 289.039062 663.804688 C 291.246094 647.316406 291.03125 631.207031 285.230469 615.289062 C 280.878906 603.324219 273.726562 593.183594 266.476562 583.019531 C 250.46875 560.585938 234.15625 538.363281 218.476562 515.691406 C 210.03125 503.476562 203.410156 490.171875 199.816406 477.441406 Z M 199.816406 477.441406 "/>
                </g>
            </g>
        </g>
        <g mask="url(#1dd7c02f44)" transform="matrix(1,0,0,1,140,197)">
            <g clip-path="url(#9b59318607)">
                <g clip-rule="nonzero" clip-path="url(#874f393844)">
                    <g clip-rule="nonzero" clip-path="url(#ad964e685d)">
                        <g clip-rule="nonzero" clip-path="url(#6d587202de)">
                            <g clip-rule="nonzero" clip-path="url(#bb1e044493)">
                                <path style=" stroke:none;fill-rule:nonzero;fill:#ffffff;fill-opacity:1;"
                                      d="M 374.085938 531.742188 C 349.25 546.652344 313.429688 545.054688 283.34375 536.683594 C 226.199219 520.769531 168.820312 475.730469 169.691406 420.433594 C 170.089844 395.984375 175.285156 381.804688 179.460938 370.425781 C 190.277344 340.925781 190.410156 329.453125 123.210938 262.6875 C 103.671875 243.28125 94.171875 216.472656 97.136719 189.167969 C 100.082031 161.949219 115.039062 137.929688 138.140625 123.246094 C 161.40625 108.464844 178.195312 97.738281 190.617188 89.703125 C 191.804688 88.9375 193.023438 88.1875 194.234375 87.457031 C 248.402344 54.941406 318.902344 66.042969 359.867188 114.136719 C 393.691406 153.8125 408.886719 188.167969 405.035156 216.191406 C 402.238281 236.523438 389.230469 254.628906 366.375 270 C 313.90625 305.257812 341.746094 351.136719 368.664062 395.515625 C 392.070312 434.070312 416.265625 473.949219 394.585938 511.082031 C 389.375 520.027344 382.324219 526.796875 374.085938 531.742188 Z M 187.957031 77 C 186.625 77.800781 185.3125 78.609375 184.007812 79.464844 C 171.605469 87.46875 154.835938 98.199219 131.597656 112.964844 C 105.335938 129.636719 88.359375 156.925781 85.011719 187.851562 C 81.640625 218.867188 92.429688 249.308594 114.605469 271.339844 C 179.253906 335.558594 176.417969 343.300781 168.007812 366.222656 C 163.753906 377.835938 157.925781 393.707031 157.492188 420.234375 C 156.523438 481.722656 218.417969 531.257812 280.074219 548.429688 C 336.792969 564.226562 384.703125 552.265625 405.125 517.222656 C 430.457031 473.824219 403.164062 428.855469 379.089844 389.183594 C 348.890625 339.402344 332.4375 307.488281 373.175781 280.125 C 399.039062 262.730469 413.832031 241.769531 417.117188 217.863281 C 421.515625 185.789062 405.832031 149.265625 369.160156 106.226562 C 324.335938 53.59375 247.191406 41.441406 187.957031 77 "/>
                            </g>
                        </g>
                    </g>
                </g>
            </g>
            <mask id="1dd7c02f44">
                <g filter="url(#bfa5f04751)">
                    <rect x="0" width="810" y="0" height="1012.49997"
                          style="fill:#000000;fill-opacity:0.73;stroke:none;"/>
                </g>
            </mask>
        </g>
    </g>
</svg>

<svg xmlns="http://www.w3.org/2000/svg" version="1.2" viewBox="193 253 400 530">
    <defs>
        <clipPath id="c">
            <path d="M.8.8h374.4v374.5H.8Zm0 0"/>
        </clipPath>
        <clipPath id="b">
            <path d="M0 0h376v376H0z"/>
        </clipPath>
        <clipPath id="e">
            <path d="M193 298h360v486H193Zm0 0"/>
        </clipPath>
        <clipPath id="f">
            <path d="M302 810 158.6 346.5l335.9-104L637.9 706Zm0 0"/>
        </clipPath>
        <clipPath id="g">
            <path d="M302 810 158.6 346.5l335.9-104L637.9 706Zm0 0"/>
        </clipPath>
        <clipPath id="j">
            <path d="M84 56h334v500H84Zm0 0"/>
        </clipPath>
        <clipPath id="k">
            <path d="M1.4 189.2 313 2l256.2 426.8-311.7 187.1Zm0 0"/>
        </clipPath>
        <clipPath id="l">
            <path d="m257.5 615.8 311.7-187.1L313 1.9 1.3 189.1Zm0 0"/>
        </clipPath>
        <clipPath id="m">
            <path d="m258.1 615.5 310.1-186.2L312 2.5 2 188.7Zm0 0"/>
        </clipPath>
        <clipPath id="i">
            <path d="M0 0h571v620H0z"/>
        </clipPath>
        <filter id="d" width="100%" height="100%" x="0%" y="0%" filterUnits="objectBoundingBox">
            <feColorMatrix in="SourceGraphic" values="0 0 0 0 1 0 0 0 0 1 0 0 0 0 1 0 0 0 1 0"/>
        </filter>
    </defs>
    <g mask="url(#a)" transform="translate(217 318)">
        <g clip-path="url(#b)">
            <g clip-path="url(#c)">
                <path fill="#fff"
                      d="M188 .8a189.7 189.7 0 0 0-80 18 189.6 189.6 0 0 0-70.4 57.7A185.6 185.6 0 0 0 1 178.8 189.7 189.7 0 0 0 18.8 268a187.4 187.4 0 0 0 356.4-80A189.5 189.5 0 0 0 353 99.8 189 189 0 0 0 276.2 23 187.2 187.2 0 0 0 188 .8Zm-22.7 280.8-27.1-24L200 188l-61.8-69.5 27-24.1 83.3 93.6Zm0 0"/>
            </g>
        </g>
        <mask id="a">
            <g filter="url(#d)">
                <path fill-opacity=".8" d="M0 0h810v1012.5H0z"/>
            </g>
        </mask>
    </g>
    <g clip-path="url(#e)">
        <g clip-path="url(#f)">
            <g clip-path="url(#g)">
                <path fill="#ff791a" fill-rule="evenodd"
                      d="M199.8 477.4c-7.9-24.8-7.1-48.3-4.4-72a132 132 0 0 1 21.3-58.1 51.8 51.8 0 0 1 52.6-25c10.5 1.2 21 4 31.2 6.8a50 50 0 0 0 30.7 1c10.3-3.7 20.1-8.5 30-13 9.3-4.1 18.2-9.4 27.7-12.6a114.8 114.8 0 0 1 87.4 5.1 102.6 102.6 0 0 1 59.2 71.2 52 52 0 0 1 1 20.1c-1.6 10.8-4 21.6-7.4 31.9-6.8 20.4-9.4 41-5.8 62.2a89 89 0 0 0 10.3 30.1c10.4 18 18.2 37 19.1 58 .8 18-2.5 35.2-10.7 51.4a33.4 33.4 0 0 1-28.6 18.9l-45.8 4.6a74 74 0 0 0-29.2 10.4c-5.5 3.2-9 8-9.5 14.4a144 144 0 0 0 0 18.7c.8 12 1.7 24-1.3 35.7a60.2 60.2 0 0 1-27 39.4 42 42 0 0 1-31.7 5.3 113.7 113.7 0 0 1-76-54 57.2 57.2 0 0 1-7-33.8c.7-10.1 1.8-20.2 3.1-30.3 2.2-16.5 2-32.6-3.8-48.5-4.3-12-11.5-22.1-18.7-32.3-16-22.4-32.3-44.6-48-67.3a133 133 0 0 1-18.7-38.3Zm0 0"/>
            </g>
        </g>
    </g>
    <g mask="url(#h)" transform="translate(140 197)">
        <g clip-path="url(#i)">
            <g clip-path="url(#j)">
                <g clip-path="url(#k)">
                    <g clip-path="url(#l)">
                        <g clip-path="url(#m)">
                            <path fill="#fff"
                                  d="M374 531.7c-24.8 15-60.6 13.4-90.7 5-57.1-16-114.5-61-113.6-116.3.4-24.4 5.6-38.6 9.8-50 10.8-29.5 11-41-56.3-107.7a89.5 89.5 0 0 1 15-139.5 8089 8089 0 0 0 56-35.7A130.2 130.2 0 0 1 360 114c33.8 39.7 49 74 45.1 102-2.8 20.4-15.8 38.5-38.6 53.9-52.5 35.3-24.7 81.1 2.3 125.5 23.4 38.6 47.6 78.4 25.9 115.6a57.8 57.8 0 0 1-20.5 20.6ZM188 77l-4 2.5-52.4 33.5a101.7 101.7 0 0 0-17 158.4c64.7 64.2 61.8 71.9 53.4 94.8-4.2 11.6-10 27.5-10.5 54-1 61.5 61 111 122.6 128.2 56.7 15.8 104.6 3.9 125-31.2 25.4-43.4-2-88.3-26-128-30.2-49.8-46.7-81.7-6-109 26-17.5 40.7-38.4 44-62.3 4.4-32.1-11.3-68.6-48-111.7A142.4 142.4 0 0 0 188 77"/>
                        </g>
                    </g>
                </g>
            </g>
        </g>
        <mask id="h">
            <g filter="url(#d)">
                <path fill-opacity=".7" d="M0 0h810v1012.5H0z"/>
            </g>
        </mask>
    </g>
</svg>
